X:86
T:Simple George
M:2/4
L:1/8
B:Thompson's Compleat Collection of 200 Favourite Country Dances, vol. 1 (London, 1757)
Z:Transcribed and edited by Fynnian Titford-Mock, 2007
Z:abc's:AK/Fiddler's Companion
K:G
(GA) (Bc)|d2 b2|(ag) (fg)|a2 A2|(cB) (AB)|c2 e2|dg fa|g2 G2:|
|:ba (3gab|(af) ed|ef ge|a2 A2|dB AG|c2 e2|af df|g2 G2:|

